pics/layer0.svg

<svg width="960" height="59" xmlns="http://www.w3.org/2000/svg" version="1.1">

 <g>
  <title>Layer 1</title>
  <path id="svg_2" fill="#a97d1b" d="m0,54l14.5,1c14.5,1 43.5,3 72.7,0.7c29.1,-2.4 58.5,-9 87.6,-12.4c29.2,-3.3 58.2,-3.3 87.2,-2.6c29,0.6 58,2 87,5.1c29,3.2 58,8.2 87.2,9.7c29.1,1.5 58.5,-0.5 87.6,-2.2c29.2,-1.6 58.2,-3 87.2,-3.3c29,-0.3 58,0.3 87,1.8c29,1.5 58,3.9 87.2,3c29.1,-0.8 58.5,-4.8 87.6,-6c29.2,-1.1 58.2,0.5 72.7,1.4l14.5,0.8l0,-51l-14.5,0c-14.5,0 -43.5,0 -72.7,0c-29.1,0 -58.5,0 -87.6,0c-29.2,0 -58.2,0 -87.2,0c-29,0 -58,0 -87,0c-29,0 -58,0 -87.2,0c-29.1,0 -58.5,0 -87.6,0c-29.2,0 -58.2,0 -87.2,0c-29,0 -58,0 -87,0c-29,0 -58,0 -87.2,0c-29.1,0 -58.5,0 -87.6,0c-29.2,0 -58.2,0 -72.7,0l-14.5,0l0,54z"/>
  <path id="svg_3" fill="#59441c" d="m0,38l14.5,-2.2c14.5,-2.1 43.5,-6.5 72.7,-6.6c29.1,-0.2 58.5,3.8 87.6,6.1c29.2,2.4 58.2,3 87.2,2c29,-1 58,-3.6 87,-4.1c29,-0.5 58,1.1 87.2,2.5c29.1,1.3 58.5,2.3 87.6,2.5c29.2,0.1 58.2,-0.5 87.2,0.1c29,0.7 58,2.7 87,0.9c29,-1.9 58,-7.5 87.2,-9.5c29.1,-2 58.5,-0.4 87.6,0.8c29.2,1.2 58.2,1.8 72.7,2.2l14.5,0.3l0,-33l-14.5,0c-14.5,0 -43.5,0 -72.7,0c-29.1,0 -58.5,0 -87.6,0c-29.2,0 -58.2,0 -87.2,0c-29,0 -58,0 -87,0c-29,0 -58,0 -87.2,0c-29.1,0 -58.5,0 -87.6,0c-29.2,0 -58.2,0 -87.2,0c-29,0 -58,0 -87,0c-29,0 -58,0 -87.2,0c-29.1,0 -58.5,0 -87.6,0c-29.2,0 -58.2,0 -72.7,0l-14.5,0l0,38z"/>
  <path id="svg_4" fill="#121214" d="m0,20l14.5,0.3c14.5,0.4 43.5,1 72.7,0.7c29.1,-0.3 58.5,-1.7 87.6,-3.2c29.2,-1.5 58.2,-3.1 87.2,-2.5c29,0.7 58,3.7 87,4.7c29,1 58,0 87.2,-0.8c29.1,-0.9 58.5,-1.5 87.6,-1c29.2,0.5 58.2,2.1 87.2,2.5c29,0.3 58,-0.7 87,-0.7c29,0 58,1 87.2,1.3c29.1,0.4 58.5,0 87.6,-0.1c29.2,-0.2 58.2,-0.2 72.7,-0.2l14.5,0l0,-21l-14.5,0c-14.5,0 -43.5,0 -72.7,0c-29.1,0 -58.5,0 -87.6,0c-29.2,0 -58.2,0 -87.2,0c-29,0 -58,0 -87,0c-29,0 -58,0 -87.2,0c-29.1,0 -58.5,0 -87.6,0c-29.2,0 -58.2,0 -87.2,0c-29,0 -58,0 -87,0c-29,0 -58,0 -87.2,0c-29.1,0 -58.5,0 -87.6,0c-29.2,0 -58.2,0 -72.7,0l-14.5,0l0,20z"/>
 </g>
</svg>

<svg id="visual" viewBox="0 0 960 100" width="960" height="100" xmlns="http://www.w3.org/2000/svg" xmlns:xlink="http://www.w3.org/1999/xlink" version="1.1"><path d="M0 66L14.5 67.5C29 69 58 72 87.2 70.8C116.3 69.7 145.7 64.3 174.8 60.3C204 56.3 233 53.7 262 56.2C291 58.7 320 66.3 349 68.2C378 70 407 66 436.2 64.3C465.3 62.7 494.7 63.3 523.8 62.8C553 62.3 582 60.7 611 62.8C640 65 669 71 698 73C727 75 756 73 785.2 68.8C814.3 64.7 843.7 58.3 872.8 59C902 59.7 931 67.3 945.5 71.2L960 75L960 0L945.5 0C931 0 902 0 872.8 0C843.7 0 814.3 0 785.2 0C756 0 727 0 698 0C669 0 640 0 611 0C582 0 553 0 523.8 0C494.7 0 465.3 0 436.2 0C407 0 378 0 349 0C320 0 291 0 262 0C233 0 204 0 174.8 0C145.7 0 116.3 0 87.2 0C58 0 29 0 14.5 0L0 0Z" fill="#ffbc01"></path><path d="M0 54L14.5 55C29 56 58 58 87.2 55.7C116.3 53.3 145.7 46.7 174.8 43.3C204 40 233 40 262 40.7C291 41.3 320 42.7 349 45.8C378 49 407 54 436.2 55.5C465.3 57 494.7 55 523.8 53.3C553 51.7 582 50.3 611 50C640 49.7 669 50.3 698 51.8C727 53.3 756 55.7 785.2 54.8C814.3 54 843.7 50 872.8 48.8C902 47.7 931 49.3 945.5 50.2L960 51L960 0L945.5 0C931 0 902 0 872.8 0C843.7 0 814.3 0 785.2 0C756 0 727 0 698 0C669 0 640 0 611 0C582 0 553 0 523.8 0C494.7 0 465.3 0 436.2 0C407 0 378 0 349 0C320 0 291 0 262 0C233 0 204 0 174.8 0C145.7 0 116.3 0 87.2 0C58 0 29 0 14.5 0L0 0Z" fill="#a97d1b"></path><path d="M0 38L14.5 35.8C29 33.7 58 29.3 87.2 29.2C116.3 29 145.7 33 174.8 35.3C204 37.7 233 38.3 262 37.3C291 36.3 320 33.7 349 33.2C378 32.7 407 34.3 436.2 35.7C465.3 37 494.7 38 523.8 38.2C553 38.3 582 37.7 611 38.3C640 39 669 41 698 39.2C727 37.3 756 31.7 785.2 29.7C814.3 27.7 843.7 29.3 872.8 30.5C902 31.7 931 32.3 945.5 32.7L960 33L960 0L945.5 0C931 0 902 0 872.8 0C843.7 0 814.3 0 785.2 0C756 0 727 0 698 0C669 0 640 0 611 0C582 0 553 0 523.8 0C494.7 0 465.3 0 436.2 0C407 0 378 0 349 0C320 0 291 0 262 0C233 0 204 0 174.8 0C145.7 0 116.3 0 87.2 0C58 0 29 0 14.5 0L0 0Z" fill="#59441c"></path><path d="M0 20L14.5 20.3C29 20.7 58 21.3 87.2 21C116.3 20.7 145.7 19.3 174.8 17.8C204 16.3 233 14.7 262 15.3C291 16 320 19 349 20C378 21 407 20 436.2 19.2C465.3 18.3 494.7 17.7 523.8 18.2C553 18.7 582 20.3 611 20.7C640 21 669 20 698 20C727 20 756 21 785.2 21.3C814.3 21.7 843.7 21.3 872.8 21.2C902 21 931 21 945.5 21L960 21L960 0L945.5 0C931 0 902 0 872.8 0C843.7 0 814.3 0 785.2 0C756 0 727 0 698 0C669 0 640 0 611 0C582 0 553 0 523.8 0C494.7 0 465.3 0 436.2 0C407 0 378 0 349 0C320 0 291 0 262 0C233 0 204 0 174.8 0C145.7 0 116.3 0 87.2 0C58 0 29 0 14.5 0L0 0Z" fill="#121214"></path></svg>
